X:1
T:[ID 4-46v]
T:[ID 4-46v]
T:Bezeichnung standardisiert: Freut euch des Lebens; Aria Freut euch des Lebens Secundo
T:Urheber unbekannt Erstbeleg: 1767 (Datum in der schriftlichen Quelle) Datum in der hier transkribierten schriftlichen Quelle: 1796
C:Urheber unbekannt
C:Erstbeleg: 1767 (Datum in der schriftlichen Quelle)
C:Datum in der hier transkribierten schriftlichen Quelle: 1796
L:1/8
M:6/8
K:G
V:1 treble 
V:1
S G3 AGA | B3 B3 | G3 CB,C | GBG F3 | G3 AGA | B3 B3 | G3 CB,C | B,3 B,2 F | F2 F F3 | B2 G D2 B | %10
 F2 F FGA | B2 G D2 B | c2 c e2 c | B2 G B2 B | BcB BAG |S G3 F3 || %16

